X:3
T:Aline, L’. CJF.003
T:L’ Aline. CJF.003
T:Soldier Won’t You Marry Me, aka. CJF.003
R:Air
S:C.J.Fox MS, 1829/33, Beverley,E.Yorks.
B:Kidson Coll.Mitchell Lib.M1805
O:England
A:East Yorkshire
Z:vmp.P J Headford 2000 & 2008
M:2/4
L:1/8
Q:1/4=60
K:C
(G/F/)|” $”\
(EG).G.c|{d/}(c/B/c/d/) ee/f/|gceG|(A2GG/F/)|!
” p”(EG)(Gc)|\{d/}(c/B/c/d/) ee/f/|.g(cd)(B|” Fine”c2)z||!
e|” f”dcBc|{e/}d/^c/d/e/ dg|^fac’c’|b2ge|!
” f”dcBc|d/^c/d/e/ dg|^f” f”c’af|g2z||!
“p”(e|f)(^G=G)(e|f)(^G=G)e|dd d/c/B/A/|(A2G) (e|!
f)(^G=G)(e|f)(^G=G)e|dd d/c/B/A/|(A2G)(B/A/|!
G)(d/c/ B)(f/e/|e)a/g/ ff/(e/|\
d)f/e/ d/c/B/A/|G/^F/G/F/ G/A/G/” $”=F/|]

